X: 30825
T: Our Cat Has Kitted
R: three-two
M: 3/2
K: Dmajor
|:g2f2 e2d2 fa-a2|b2e2- e2d2 cA-A2|g2f2 e2d2 fa-a2|A2d2- d2A2 FD-D2:|
|:G2B2- B2F2 GE-E2|E2e2 e2d2 cA-A2|G2B2 FGA2 E4|D2d2 d2A2 FD-D2:|

